!!! OTL: Berkowitz567
!!! Chapter: 1
!!! Section: V
!!! Page: 143
!!! Mode: 
!!! Encoder: DJB
**kern
*staff1
*I"Piano
=1-
*clefF4
*k[]
*C:
*M6/8
4BB/
8C#/
4G#\
8Gn\
=2
4D\
8E\
4.B\
=3
8c\L
8.B-\
16F\Jk
8E\L
8BB\
8F#\J
=4
4F\
8E-\
4BB-/
8r
=5
8AA/L
8.BB/
16F#/Jk
4G#\
8D#\
=6
8D\L
8.G\
16c\Jk
4.B\
=7
8B-\L
8E-\
8A-\J
8D-\L
8G-\
8Gn\J
=8
!!linebreak:original
4D\
8C#/
4.F#\
==
*-
